X:1
T:The Tarpaulin Jacket.
M:3/4
L:1/4
K:Eb
B| G G G|A B A| G B z|z z B|c c c |B G E|F2 B|B z B/ B/|
w:A tall stal-wart lan-cer lay dy-ing, And as on his death-bed he lay, he lay, To his
G G G|A B A|G B z|z z B|c d e|G A F|(E3|E) z| 
w:friends who a-round him were sigh-ing, These last dy-ing words he did say:_________
B1/2 A1/| G G G|A B A|G B z|G B B|c c c|B1/2 B3/2 E|F2 B|(B =A) _A|
w:Wrap me up in my tar-pau-lin jack-et, jack-et, And say a poor buff-er lies low, lies low,* And
G G G|A B A|G/ G/ B|G/ G/ B/ z B|c d e|G A F| (E3|E)z||
w:six stal-wart Lan-cers shall car-ry me, car-ry me, With steps so-lemn, mourn-ful and slow.